X:124
T:Steyrish Waltz, The
S:John Moore's Book 2
Z:Transcribed by Edmund Spriggs 05/2021
%%VWML: Moore1-4494-p96-0
F:http://www.vwml.org/record/Moore2/4494/p96
M:3/4
L:1/8
K:G
d>b|g2 d>g B>d|c>a f2 c>a|g>Ac>fA>c|B>g d2 B>g|
d>GB>dG>B|E>e c2 A>a|f>Ac>fA>f|g2z2:|
|:B>g|d>GB>dG>B|E>ec2A>a|f>Ac>fA>f|bgd2B>g|
d>GB>dG>B|E>ec2A>a|f>Ac>fA>f|g2z2:|

